X: 5
T:Shooting, Brackley
M:9/8
L:1/8
A:Brackley
P:A(A2B2)3
K:G
P:A
G>GG B>AG B>cd|AAA A2B  c3|
GGG  BAG  Bcd |e2d cBA  G3||
P:B
d2c  BAG  Bd2 |A2A A2B  c3|
d2c  BAG  Bd2 |e2d c>BA G3||
